X: 2
T: The Yellow Tinker
R: reel
M: 4/4
L: 1/8
K: Gmix
|:DG (3GGG DEFE|DG (3GGG BcAF|DGGF D2CD|F3A c2AF|DGGF D2CD|DG (3GGG BcAF|DGGF D2CD|F3A c2Ac|dG (3GGG dGcA|dG (3GGG d2cA|dGGA dcAG|F3A c2Ac|dG (3GGG dGcA|dG (3GGG d2cA|d3e fefd|BcAF CFAF:|


Tune 1554	Setting 14951

